packages/ffe-icons/icons/filled/md/counter_5.svg

<svg xmlns="http://www.w3.org/2000/svg" height="24" viewBox="0 -960 960 960" width="24"><path d="M480.067-100.001q-78.836 0-148.204-29.92-69.369-29.92-120.682-81.21-51.314-51.291-81.247-120.629-29.933-69.337-29.933-148.173t29.92-148.204q29.92-69.369 81.21-120.682 51.291-51.314 120.629-81.247 69.337-29.933 148.173-29.933t148.204 29.92q69.369 29.92 120.682 81.21 51.314 51.291 81.247 120.629 29.933 69.337 29.933 148.173t-29.92 148.204q-29.92 69.369-81.21 120.682-51.291 51.314-120.629 81.247-69.337 29.933-148.173 29.933Zm-80.067-190h117.692q30.308 0 51.307-21 21-20.999 21-51.307v-75.384q0-30.308-21-51.307-20.999-21-51.307-21h-87.693v-100.002H560q12.75 0 21.375-8.628 8.624-8.629 8.624-21.384 0-12.756-8.624-21.371-8.625-8.615-21.375-8.615H406.154q-15.365 0-25.759 10.346t-10.394 25.998v147.31q0 15.652 10.394 25.998 10.394 10.346 25.759 10.346h111.538q5.385 0 8.847 3.462 3.462 3.462 3.462 8.847v75.384q0 5.385-3.462 8.847-3.462 3.462-8.847 3.462H400q-12.75 0-21.374 8.628-8.625 8.629-8.625 21.384 0 12.756 8.625 21.371 8.624 8.615 21.374 8.615Z"/></svg>

<svg xmlns="http://www.w3.org/2000/svg" height="24" viewBox="0 -960 960 960" width="24"><path d="M480.07-100q-78.84 0-148.21-29.92t-120.68-81.21q-51.31-51.29-81.25-120.63Q100-401.1 100-479.93q0-78.84 29.92-148.21t81.21-120.68q51.29-51.31 120.63-81.25Q401.1-860 479.93-860q78.84 0 148.21 29.92t120.68 81.21q51.31 51.29 81.25 120.63Q860-558.9 860-480.07q0 78.84-29.92 148.21t-81.21 120.68q-51.29 51.31-120.63 81.25Q558.9-100 480.07-100ZM400-290h117.69Q548-290 569-311q21-21 21-51.31v-75.38Q590-468 569-489q-21-21-51.31-21H430v-100h130q12.75 0 21.37-8.63 8.63-8.63 8.63-21.38 0-12.76-8.63-21.37Q572.75-670 560-670H406.15q-15.36 0-25.76 10.35Q370-649.31 370-633.66v147.32q0 15.65 10.39 25.99Q390.79-450 406.15-450h111.54q5.39 0 8.85 3.46t3.46 8.85v75.38q0 5.39-3.46 8.85t-8.85 3.46H400q-12.75 0-21.37 8.63-8.63 8.63-8.63 21.38 0 12.76 8.63 21.37Q387.25-290 400-290Z"/></svg>
